Sources/FrostedUI/Resources/Icons.xcassets/pauseCircle24.imageset/pause-circle-24.svg

<svg width="24" height="24" viewBox="0 0 24 24" fill="none" xmlns="http://www.w3.org/2000/svg" data-fui-icon="true">
  <path
    d="M12 1C18.0751 1 23 5.92487 23 12C23 18.0751 18.0751 23 12 23C5.92487 23 1 18.0751 1 12C1 5.92487 5.92487 1 12 1ZM12 2.5C6.75329 2.5 2.5 6.75329 2.5 12C2.5 17.2467 6.75329 21.5 12 21.5C17.2467 21.5 21.5 17.2467 21.5 12C21.5 6.75329 17.2467 2.5 12 2.5ZM9 7.5C9.41421 7.5 9.75 7.83579 9.75 8.25V15.75C9.74995 16.1642 9.41418 16.5 9 16.5C8.58582 16.5 8.25005 16.1642 8.25 15.75V8.25C8.25 7.83579 8.58579 7.5 9 7.5ZM15 7.5C15.4142 7.5 15.75 7.83579 15.75 8.25V15.75C15.7499 16.1642 15.4142 16.5 15 16.5C14.5858 16.5 14.2501 16.1642 14.25 15.75V8.25C14.25 7.83579 14.5858 7.5 15 7.5Z"
    fill="currentColor"
  />
</svg>

<svg xmlns="http://www.w3.org/2000/svg" width="24" height="24" fill="none" data-fui-icon="true" viewBox="0 0 24 24"><path fill="currentColor" d="M12 1c6.075 0 11 4.925 11 11s-4.925 11-11 11S1 18.075 1 12 5.925 1 12 1m0 1.5a9.5 9.5 0 1 0 0 19 9.5 9.5 0 0 0 0-19m-3 5a.75.75 0 0 1 .75.75v7.5a.75.75 0 0 1-1.5 0v-7.5A.75.75 0 0 1 9 7.5m6 0a.75.75 0 0 1 .75.75v7.5a.75.75 0 0 1-1.5 0v-7.5A.75.75 0 0 1 15 7.5"/></svg>
